X: 1191
T: An Corran
R: jig
M: 6/8
K: Gmajor
dc|:BGG GDG|GBd gfe|cAA AEA|ABd edc|
Bcd def|gba gfe|dee dBc|1 dgc BGA:|2 BGG Gdc||
|:Bcd def|gba gfe|dee dBc|dgc Bcd|
[1 Bcd def|gba gfe|dee dBc|BGG Gdc:|
[2 efg fga|gba gfe|dee dBc|BGG G3||

